client/public/assets/icons/standard/product_consumed.svg

<svg xmlns="http://www.w3.org/2000/svg" width="100" height="100" viewBox="0 0 100 100"><path d="M77.13,55.17H73.38A1.92,1.92,0,0,0,71.5,57v12.5a1.92,1.92,0,0,1-1.87,1.88H28.38a1.92,1.92,0,0,1-1.87-1.87V57a1.92,1.92,0,0,0-1.87-1.87H20.88A1.92,1.92,0,0,0,19,57V73.92a5,5,0,0,0,5,5H74a5,5,0,0,0,5-5V57A1.92,1.92,0,0,0,77.13,55.17ZM47.75,63.42a1.81,1.81,0,0,0,2.63,0L67.25,46.54a1.81,1.81,0,0,0,0-2.63l-2.62-2.63a1.81,1.81,0,0,0-2.62,0l-7,7a1.25,1.25,0,0,1-2.13-.88V20.79a2.25,2.25,0,0,0-2-1.87H47.13a1.92,1.92,0,0,0-1.87,1.88v26.5a1.25,1.25,0,0,1-2.13.88l-7-7a1.81,1.81,0,0,0-2.63,0l-2.63,2.75a1.81,1.81,0,0,0,0,2.63Z" fill="#fff"/></svg>

<?xml version="1.0"?><svg xmlns="http://www.w3.org/2000/svg" width="100" height="100" viewBox="0 0 100 100"><path d="m77.1 55.2h-3.7a1.9 1.9 0 0 0-1.9 1.8v12.5a1.9 1.9 0 0 1-1.9 1.9h-41.2a1.9 1.9 0 0 1-1.9-1.9v-12.5a1.9 1.9 0 0 0-1.9-1.9h-3.7a1.9 1.9 0 0 0-1.9 1.9v16.9a5 5 0 0 0 5 5h50a5 5 0 0 0 5-5v-16.9a1.9 1.9 0 0 0-1.9-1.8z m-29.3 8.2a1.8 1.8 0 0 0 2.6 0l16.9-16.9a1.8 1.8 0 0 0 0-2.6l-2.7-2.6a1.8 1.8 0 0 0-2.6 0l-7 7a1.3 1.3 0 0 1-2.1-0.9v-26.6a2.3 2.3 0 0 0-2-1.9h-3.8a1.9 1.9 0 0 0-1.8 1.9v26.5a1.3 1.3 0 0 1-2.2 0.9l-7-7a1.8 1.8 0 0 0-2.6 0l-2.6 2.7a1.8 1.8 0 0 0 0 2.7z" fill="#fff"></path></svg>
